src/assets/filled/GalleryExport.svg

<svg width="24" height="24" viewBox="0 0 24 24"  xmlns="http://www.w3.org/2000/svg">
<path d="M20.97 1H18.03C16.76 1 16 1.76 16 3.03V5.97C16 7.24 16.76 8 18.03 8H20.97C22.24 8 23 7.24 23 5.97V3.03C23 1.76 22.24 1 20.97 1ZM21.19 4.31C21.07 4.43 20.91 4.49 20.75 4.49C20.59 4.49 20.43 4.43 20.31 4.31L20.13 4.13V6.37C20.13 6.72 19.85 7 19.5 7C19.15 7 18.87 6.72 18.87 6.37V4.13L18.69 4.31C18.45 4.55 18.05 4.55 17.81 4.31C17.57 4.07 17.57 3.67 17.81 3.43L19.06 2.18C19.11 2.13 19.18 2.09 19.25 2.06C19.27 2.05 19.29 2.05 19.31 2.04C19.36 2.02 19.41 2.01 19.47 2.01C19.49 2.01 19.51 2.01 19.53 2.01C19.6 2.01 19.66 2.02 19.73 2.05C19.74 2.05 19.74 2.05 19.75 2.05C19.82 2.08 19.88 2.12 19.93 2.17C19.94 2.18 19.94 2.18 19.95 2.18L21.2 3.43C21.44 3.67 21.44 4.07 21.19 4.31Z" />
<path d="M9.00012 10.3801C10.3146 10.3801 11.3801 9.31456 11.3801 8.00012C11.3801 6.68568 10.3146 5.62012 9.00012 5.62012C7.68568 5.62012 6.62012 6.68568 6.62012 8.00012C6.62012 9.31456 7.68568 10.3801 9.00012 10.3801Z" />
<path d="M20.97 8H20.5V12.61L20.37 12.5C19.59 11.83 18.33 11.83 17.55 12.5L13.39 16.07C12.61 16.74 11.35 16.74 10.57 16.07L10.23 15.79C9.52 15.17 8.39 15.11 7.59 15.65L3.85 18.16C3.63 17.6 3.5 16.95 3.5 16.19V7.81C3.5 4.99 4.99 3.5 7.81 3.5H16V3.03C16 2.63 16.07 2.29 16.23 2H7.81C4.17 2 2 4.17 2 7.81V16.19C2 17.28 2.19 18.23 2.56 19.03C3.42 20.93 5.26 22 7.81 22H16.19C19.83 22 22 19.83 22 16.19V7.77C21.71 7.93 21.37 8 20.97 8Z" />
</svg>

<?xml version="1.0" encoding="UTF-8"?>
<svg width="24" height="24" viewBox="0 0 24 24" xmlns="http://www.w3.org/2000/svg">
 <path d="m20.97 1h-2.94c-1.27 0-2.03 0.76-2.03 2.03v2.94c0 1.27 0.76 2.03 2.03 2.03h2.94c1.27 0 2.03-0.76 2.03-2.03v-2.94c0-1.27-0.76-2.03-2.03-2.03zm0.22 3.31c-0.12 0.12-0.28 0.18-0.44 0.18s-0.32-0.06-0.44-0.18l-0.18-0.18v2.24c0 0.35-0.28 0.63-0.63 0.63s-0.63-0.28-0.63-0.63v-2.24l-0.18 0.18c-0.24 0.24-0.64 0.24-0.88 0s-0.24-0.64 0-0.88l1.25-1.25c0.05-0.05 0.12-0.09 0.19-0.12 0.02-0.01 0.04-0.01 0.06-0.02 0.05-0.02 0.1-0.03 0.16-0.03h0.06c0.07 0 0.13 0.01 0.2 0.04h0.02c0.07 0.03 0.13 0.07 0.18 0.12 0.01 0.01 0.01 0.01 0.02 0.01l1.25 1.25c0.24 0.24 0.24 0.64-0.01 0.88z"/>
 <path d="m9.0001 10.38c1.3145 0 2.38-1.0655 2.38-2.38s-1.0655-2.38-2.38-2.38c-1.3144 0-2.38 1.0656-2.38 2.38s1.0656 2.38 2.38 2.38z"/>
 <path d="m20.97 8h-0.47v4.61l-0.13-0.11c-0.78-0.67-2.04-0.67-2.82 0l-4.16 3.57c-0.78 0.67-2.04 0.67-2.82 0l-0.34-0.28c-0.71-0.62-1.84-0.68-2.64-0.14l-3.74 2.51c-0.22-0.56-0.35-1.21-0.35-1.97v-8.38c0-2.82 1.49-4.31 4.31-4.31h8.19v-0.47c0-0.4 0.07-0.74 0.23-1.03h-8.42c-3.64 0-5.81 2.17-5.81 5.81v8.38c0 1.09 0.19 2.04 0.56 2.84 0.86 1.9 2.7 2.97 5.25 2.97h8.38c3.64 0 5.81-2.17 5.81-5.81v-8.42c-0.29 0.16-0.63 0.23-1.03 0.23z"/>
</svg>
